libs/icons/src/svg/microphone.svg

<svg width="16" height="16" viewBox="0 0 16 16" fill="none" xmlns="http://www.w3.org/2000/svg">
<path fill-rule="evenodd" clip-rule="evenodd" d="M12 6.66667C12 8.93333 10.2666 10.6667 7.99998 10.6667C5.73331 10.6667 3.99998 8.93333 3.99998 6.66667V4C3.99998 1.73333 5.73331 0 7.99998 0C10.2666 0 12 1.73333 12 4V6.66667ZM7.99998 1.33333C6.53331 1.33333 5.33331 2.53333 5.33331 4V6.66667C5.33331 8.13333 6.53331 9.33333 7.99998 9.33333C9.46665 9.33333 10.6666 8.13333 10.6666 6.66667V4C10.6666 2.53333 9.46665 1.33333 7.99998 1.33333ZM14 6C14.4 6 14.6666 6.26667 14.6666 6.66667C14.6666 10.1333 12.0666 13 8.66665 13.3333V14.6667H11.3333C11.7333 14.6667 12 14.9333 12 15.3333C12 15.7333 11.7333 16 11.3333 16H7.99998H4.66665C4.26665 16 3.99998 15.7333 3.99998 15.3333C3.99998 14.9333 4.26665 14.6667 4.66665 14.6667H7.33331V13.3333C3.93331 13 1.33331 10.1333 1.33331 6.66667C1.33331 6.26667 1.59998 6 1.99998 6C2.39998 6 2.66665 6.26667 2.66665 6.66667C2.66665 9.6 5.06665 12 7.99998 12C10.9333 12 13.3333 9.6 13.3333 6.66667C13.3333 6.26667 13.6 6 14 6Z" fill="#202327"/>
</svg>

<svg xmlns="http://www.w3.org/2000/svg" viewBox="0 0 16 16" class="sageicon"><path fill-rule="evenodd" d="M12 6.667c0 2.266-1.733 4-4 4s-4-1.734-4-4V4c0-2.267 1.733-4 4-4s4 1.733 4 4v2.667ZM8 1.333A2.675 2.675 0 0 0 5.333 4v2.667c0 1.466 1.2 2.666 2.667 2.666 1.467 0 2.667-1.2 2.667-2.666V4c0-1.467-1.2-2.667-2.667-2.667ZM14 6c.4 0 .667.267.667.667 0 3.466-2.6 6.333-6 6.666v1.334h2.666c.4 0 .667.266.667.666s-.267.667-.667.667H4.667c-.4 0-.667-.267-.667-.667s.267-.666.667-.666h2.666v-1.334c-3.4-.333-6-3.2-6-6.666C1.333 6.267 1.6 6 2 6s.667.267.667.667C2.667 9.6 5.067 12 8 12c2.933 0 5.333-2.4 5.333-5.333 0-.4.267-.667.667-.667Z"/></svg>
